build/service/IntervalSolid.svg

<svg xmlns="http://www.w3.org/2000/svg" fill="none" viewBox="0 0 24 24" focusable="false"><path d="M0 0H24V24H0z"/><path fill="#74767B" fill-rule="evenodd" d="M3 12C3 7.02944 7.02944 3 12 3C16.9706 3 21 7.02944 21 12C21 16.9706 16.9706 21 12 21C7.02944 21 3 16.9706 3 12ZM16.6997 10.65C16.6997 10.291 16.9907 10 17.3497 10C17.7087 10 17.9997 10.291 17.9997 10.65L17.9997 11.9302L17.9997 13.25C17.9997 13.609 17.7087 13.9 17.3497 13.9C16.9907 13.9 16.6997 13.609 16.6997 13.25L16.6997 12.6L7.30002 12.6L7.30002 13.25C7.30002 13.609 7.00901 13.9 6.65002 13.9C6.29104 13.9 6.00002 13.609 6.00002 13.25L6.00002 11.956L6.00002 10.65C6.00002 10.291 6.29104 10 6.65002 10C7.00901 10 7.30002 10.291 7.30002 10.65L7.30002 11.3L16.6997 11.3L16.6997 10.65Z"/></svg>

<svg xmlns="http://www.w3.org/2000/svg" fill="none" viewBox="0 0 24 24" focusable="false"><path fill="#74767B" fill-rule="evenodd" d="M3 12c0-4.98 4.02-9 9-9 4.97 0 9 4.02 9 9a9 9 0 0 1-9 9c-4.98 0-9-4.03-9-9m13.69-1.35c0-.36.3-.65.65-.65.36 0 .65.29.65.65v2.6c0 .35-.29.65-.65.65-.35 0-.65-.3-.65-.65v-.65h-9.4v.65c0 .35-.29.65-.65.65-.35 0-.64-.3-.64-.65v-2.6c0-.36.29-.65.64-.65.36 0 .65.29.65.65v.65h9.4z"/></svg>
